svgs/juicessh.svg

<svg width="192" height="192" viewBox="0 0 192 192" fill="none" xmlns="http://www.w3.org/2000/svg"><g clip-path="url(#a)" stroke="#000" stroke-width="12" stroke-linecap="round" stroke-linejoin="round"><path d="M170 96c0 40.869-33.131 74-74 74m74-74c0-40.87-33.131-74-74-74m74 74H22m74 74c-40.87 0-74-33.131-74-74m74 74V22M22 96c0-40.87 33.13-74 74-74m52.326 126.326L43.674 43.674m0 104.652L148.326 43.674"/></g><defs><clipPath id="a"><path fill="#fff" d="M0 0h192v192H0z"/></clipPath></defs></svg>

<?xml version="1.0" encoding="UTF-8" standalone="no"?><svg xmlns:android="http://schemas.android.com/apk/res/android" height="192" width="192" xmlns="http://www.w3.org/2000/svg">
  <g>
    <clip-path android:pathData="M0,0h192v192h-192z"/>
    <path d="M170,96C170,136.869 136.869,170 96,170M170,96C170,55.131 136.869,22 96,22M170,96H22M96,170C55.131,170 22,136.869 22,96M96,170V22M22,96C22,55.131 55.131,22 96,22" fill="#000000" fill-opacity="0.0" stroke="#000000" stroke-linecap="round" stroke-linejoin="round" stroke-width="12"/>
    <path d="M148.326,148.326L43.674,43.674M43.674,148.326L148.326,43.674" fill="#000000" fill-opacity="0.0" stroke="#000000" stroke-linecap="round" stroke-linejoin="round" stroke-width="12"/>
  </g>
</svg>
